packages/foundation/assets/vector/winc_logo.svg

<svg width="52" height="14" viewBox="0 0 52 14" fill="none" xmlns="http://www.w3.org/2000/svg">
<g clip-path="url(#clip0_136_4329)">
<path d="M7.92897 0.259402L5.4811 8.68126L3.36416 0.259402H0L4.02934 13.7401H6.70614L9.1468 6.35183L11.5886 13.7401H14.2637L18.2942 0.259402H14.9306L12.8131 8.71306L10.3652 0.259402H7.92897Z" fill="#121212"/>
<path d="M22.9823 0.259277H19.8564V13.74H22.9823V0.259277Z" fill="#121212"/>
<path d="M25.4053 0.259277V13.74H28.4319V6.09847L33.566 13.74H36.2179V0.259277H33.1912V8.38327L28.0461 0.259277H25.4053Z" fill="#121212"/>
<path d="M45.1544 10.8902C43.0224 10.8902 41.2885 9.14479 41.2885 7C41.2885 4.85521 43.023 3.10981 45.1544 3.10981C46.7009 3.10981 48.0828 4.02462 48.6981 5.44761H51.9387C51.2263 2.28201 48.3977 0 45.1544 0C41.3185 0 38.1982 3.13994 38.1982 7C38.1982 10.8601 41.3185 14 45.1544 14C48.4004 14 51.2297 11.7157 51.9397 8.54682H48.7003C48.0861 9.9737 46.7031 10.8902 45.1544 10.8902Z" fill="#121212"/>
</g>
<defs>
<clipPath id="clip0_136_4329">
<rect width="52" height="14" fill="white"/>
</clipPath>
</defs>
</svg>

<svg xmlns="http://www.w3.org/2000/svg" width="52" height="14" fill="none"><g clip-path="url(#prefix__clip0_136_4329)" fill="#000"><path d="M7.929.26L5.481 8.68 3.364.26H0L4.03 13.74h2.676l2.44-7.388 2.443 7.388h2.675L18.294.26h-3.363l-2.118 8.453L10.365.26H7.93zM22.982.26h-3.126v13.48h3.126V.26zM25.405.26v13.48h3.027V6.098l5.134 7.642h2.652V.26H33.19v8.123L28.046.26h-2.64zM45.154 10.89c-2.132 0-3.866-1.745-3.866-3.89s1.735-3.89 3.866-3.89c1.547 0 2.929.915 3.544 2.338h3.24C51.227 2.282 48.399 0 45.155 0c-3.836 0-6.956 3.14-6.956 7s3.12 7 6.956 7c3.246 0 6.076-2.284 6.786-5.453H48.7a3.85 3.85 0 01-3.546 2.343z"/></g><defs><clipPath id="prefix__clip0_136_4329"><path fill="#fff" d="M0 0h52v14H0z"/></clipPath></defs></svg>
